packages/core/src/svgs/tokens/mono/BAX.svg

<svg width="24" height="24" viewBox="0 0 24 24" fill="none" xmlns="http://www.w3.org/2000/svg">
<path fill-rule="evenodd" clip-rule="evenodd" d="M18.575 19.943C21.6129 17.6187 22.1915 13.272 19.8679 10.2341C17.5436 7.19616 13.1969 6.61757 10.159 8.94121C6.70858 11.5812 5.73013 16.6879 5.23032 20.8268C5.20953 20.9963 5.25597 21.1671 5.35968 21.3028C5.46337 21.4384 5.61609 21.528 5.78508 21.5524C9.8842 22.1494 15.1424 22.5685 18.575 19.943ZM17.5998 18.962C18.7702 18.0665 19.537 16.7429 19.7313 15.2821C19.9258 13.8213 19.5319 12.3432 18.6365 11.1728C17.7412 10.0024 16.4174 9.2357 14.9567 9.04129C13.496 8.84687 12.0179 9.24069 10.8475 10.1362C8.11463 12.2274 7.31497 16.2477 6.9085 19.5451C6.88756 19.7148 6.9341 19.886 7.03812 20.0216C7.14212 20.1574 7.29527 20.2468 7.46458 20.2708C10.7342 20.7407 14.8811 21.0412 17.5998 18.962Z" fill="white"/>
<path fill-rule="evenodd" clip-rule="evenodd" d="M15.7939 13.7263C18.4458 10.9697 18.3604 6.58527 15.6039 3.93395C12.8467 1.28263 8.46215 1.36804 5.81088 4.12461C2.79944 7.25588 2.60481 12.4519 2.73654 16.6185C2.7478 16.9741 3.03908 17.2542 3.39457 17.2522C7.53671 17.2223 12.7984 16.8417 15.7939 13.7263ZM14.6818 12.9041C15.6921 11.8399 16.2405 10.4193 16.2071 8.95233C16.1739 7.48532 15.5616 6.09104 14.504 5.07383C13.4465 4.05661 12.0294 3.49908 10.5621 3.5229C9.095 3.54673 7.69681 4.15 6.67281 5.20103C4.28762 7.68156 4.1049 11.7774 4.20221 15.098C4.20706 15.2688 4.2788 15.431 4.402 15.5495C4.52519 15.6679 4.68999 15.7333 4.86091 15.7314C8.16434 15.7004 12.3084 15.3707 14.6818 12.9041Z" fill="white"/>
</svg>

<svg xmlns="http://www.w3.org/2000/svg" width="24" height="24" fill="none" viewBox="0 0 24 24">
    <path fill="#fff" fill-rule="evenodd" d="M18.575 19.943a6.926 6.926 0 0 0-8.416-11.002c-3.45 2.64-4.429 7.747-4.929 11.886a.653.653 0 0 0 .555.725c4.1.597 9.357 1.017 12.79-1.609m-.975-.981a5.556 5.556 0 1 0-6.753-8.826c-2.732 2.091-3.532 6.112-3.938 9.41a.65.65 0 0 0 .556.725c3.27.47 7.416.77 10.135-1.309" clip-rule="evenodd"/>
    <path fill="#fff" fill-rule="evenodd" d="M15.794 13.726A6.925 6.925 0 1 0 5.81 4.125c-3.012 3.13-3.206 8.327-3.074 12.494a.654.654 0 0 0 .658.633c4.142-.03 9.403-.41 12.399-3.526m-1.112-.822a5.556 5.556 0 0 0-8.01-7.703c-2.384 2.48-2.567 6.576-2.47 9.897a.65.65 0 0 0 .659.633c3.303-.03 7.447-.36 9.82-2.827" clip-rule="evenodd"/>
</svg>
